polaris-icons/icons/new-icons/ReceiptMajor.svg

<svg width="20" height="20" viewBox="0 0 20 20" fill="none" xmlns="http://www.w3.org/2000/svg">
<path d="M7.75 5C7.33579 5 7 5.33579 7 5.75C7 6.16421 7.33579 6.5 7.75 6.5H12.25C12.6642 6.5 13 6.16421 13 5.75C13 5.33579 12.6634 5 12.2492 5H7.75Z" fill="#4A4A4A"/>
<path d="M7 8.75C7 8.33579 7.33579 8 7.75 8H9.25C9.66421 8 10 8.33579 10 8.75C10 9.16421 9.66421 9.5 9.25 9.5H7.75C7.33579 9.5 7 9.16421 7 8.75Z" fill="#4A4A4A"/>
<path d="M7.75 11C7.33579 11 7 11.3358 7 11.75C7 12.1642 7.33579 12.5 7.75 12.5H9.25C9.66421 12.5 10 12.1642 10 11.75C10 11.3358 9.66421 11 9.25 11H7.75Z" fill="#4A4A4A"/>
<path d="M11 8.75C11 8.33579 11.3358 8 11.75 8H12.25C12.6642 8 13 8.33579 13 8.75C13 9.16421 12.6642 9.5 12.25 9.5H11.75C11.3358 9.5 11 9.16421 11 8.75Z" fill="#4A4A4A"/>
<path d="M11.75 11C11.3358 11 11 11.3358 11 11.75C11 12.1642 11.3358 12.5 11.75 12.5H12.25C12.6642 12.5 13 12.1642 13 11.75C13 11.3358 12.6642 11 12.25 11H11.75Z" fill="#4A4A4A"/>
<path fill-rule="evenodd" clip-rule="evenodd" d="M4 16C4 16.621 4.38275 17.1779 4.9626 17.4004C5.54245 17.6229 6.19945 17.4651 6.61493 17.0034L7.74999 15.7423L8.88506 17.0034C9.16952 17.3195 9.57477 17.5 10 17.5C10.4252 17.5 10.8305 17.3195 11.1149 17.0034L12.25 15.7423L13.3851 17.0034C13.8005 17.4651 14.4576 17.6229 15.0374 17.4004C15.6172 17.1779 16 16.621 16 16V5C16 3.61929 14.8807 2.5 13.5 2.5H6.5C5.11929 2.5 4 3.61929 4 5V16ZM6.5 4C5.94772 4 5.5 4.44772 5.5 5V16L7.00671 14.3259C7.40395 13.8845 8.09605 13.8845 8.49329 14.3259L10 16L11.5067 14.3259C11.904 13.8845 12.5961 13.8845 12.9933 14.3259L14.5 16V5C14.5 4.44772 14.0523 4 13.5 4H6.5Z" fill="#4A4A4A"/>
</svg>

<svg viewBox="0 0 20 20" xmlns="http://www.w3.org/2000/svg"><path d="M7.75 5a.75.75 0 0 0 0 1.5h4.5a.75.75 0 1 0 0-1.5h-4.5Z" fill="#5C5F62"/><path d="M7 8.75a.75.75 0 0 1 .75-.75h1.5a.75.75 0 0 1 0 1.5h-1.5a.75.75 0 0 1-.75-.75Z" fill="#5C5F62"/><path d="M7.75 11a.75.75 0 0 0 0 1.5h1.5a.75.75 0 0 0 0-1.5h-1.5Z" fill="#5C5F62"/><path d="M11 8.75a.75.75 0 0 1 .75-.75h.5a.75.75 0 0 1 0 1.5h-.5a.75.75 0 0 1-.75-.75Z" fill="#5C5F62"/><path d="M11.75 11a.75.75 0 0 0 0 1.5h.5a.75.75 0 0 0 0-1.5h-.5Z" fill="#5C5F62"/><path fill-rule="evenodd" d="M4 16a1.5 1.5 0 0 0 2.615 1.003l1.135-1.26 1.135 1.26a1.5 1.5 0 0 0 2.23 0l1.135-1.26 1.135 1.26a1.5 1.5 0 0 0 2.615-1.003v-11a2.5 2.5 0 0 0-2.5-2.5h-7a2.5 2.5 0 0 0-2.5 2.5v11Zm2.5-12a1 1 0 0 0-1 1v11l1.507-1.674a1 1 0 0 1 1.486 0l1.507 1.674 1.507-1.674a1 1 0 0 1 1.486 0l1.507 1.674v-11a1 1 0 0 0-1-1h-7Z" fill="#5C5F62"/></svg>
